X:1
T:On a Christmas Morning
T:On a Christmas Morning
T:William Augustine Ogden
T:William Augustine Ogden, 1870
T:Public Domain Courtesy of the Cyber Hymnal™
T:Public Domain Courtesy of the Cyber Hymnal™
C:William Augustine Ogden
Z:Public Domain
Z:Courtesy of the Cyber Hymnal™
%%score ( 1 2 ) ( 3 4 )
L:1/8
Q:1/4=100
M:2/4
K:Eb
V:1 treble 
V:2 treble 
V:3 bass 
V:4 bass 
V:1
|:"^Girls, then boys, alternate here" B, | EE EF | GG G2 | BA F2 | BG EB, | EE EF | GG G2 | BG FG | %8
w: 1.~What|is the song the|an- gels sing?|Sweet- ly sing,|glad- ly sing; What|is the song the|an- gels sing,|On a Christ- mas|
w: ~~~~O,|“Peace on earth,” the|an- gels sing,|Sweet- ly sing,|glad- ly sing, O,|“Peace on earth,” the|an- gels sing,|On a Christ- mas|
w: 2.~What|is the bless- ing|an- gels bring?|Glad- ly bring,|tru- ly bring; What|is the bless- ing|an- gels bring,|On a Christ- mas|
w: ~~~~“Good|will to men,” the|an- gels bring,|Glad- ly bring,|tru- ly bring; “Good|will to men,” the|an- gels bring,|On a Christ- mas|
w: 3.~O,|tell me why should|child- ren sing?|Sweet- ly sing,|glad- ly sing; O,|tell me why should|child- ren sing,|On a Christ- mas|
w: ~~~~In|Beth- le- hem was|born a king,|Child- ren’s king,|an- gels’ king; In|Beth- le- hem was|born a king,|On a Christ- mas|
w: 4.~Then|let us all to-|ge- ther sing,|Sweet- ly sing,|glad- ly sing; Then|let us all to-|ge- ther sing,|On this Christ- mas|
w: ~~~~Glo-|ry to Him whom|love did bring,|Sweet- ly bring,|glad- ly bring; Glo-|ry to Him whom|love did bring,|On this Christ- mas|
 E2 E :|"^Refrain" [GB] | [Ge]2 [Fd]2 | [Ge]3 [Af] | [Ge]2 [Fd]2 | [Ge]3 |: [GB] | %15
w: morn- ing?|||||||
w: morn- ing.|||||||
w: morn- ing?|||||||
w: morn- ing.|||||||
w: morn- ing?|O|bless- èd|morn! O|wond- rous|King!|A|
w: morn- ing.|||||||
w: morn- ing.|||||||
w: morn- ing.|||||||
 [Ac][Ac] [Ac][ce] | [GB][GB] [GB][EG] | [FA][FA] [FA][DF] | [EG][FA] [GB][EG] | %19
w: ||||
w: ||||
w: ||||
w: ||||
w: Sav- ior born, the|Lord’s a- noint- ed,|En- ters on the|work ap- point- ed,|
w: ||||
w: ||||
w: ||||
 [Ac][Ac] [Ac][ce] | [GB][GB] ([GB][EG]) | [GB]B [Ac][Af] | [Ge]2 [Fd]2 | [Ge]3 :| %24
w: |||||
w: |||||
w: |||||
w: |||||
w: Leaves the heav- ’nly|world a- while, *|God and man to|re- con-|cile.|
w: |||||
w: |||||
w: |||||
V:2
|: x | x4 | x4 | x4 | x4 | x4 | x4 | x4 | x3 :| x | x4 | x4 | x4 | x3 |: x | x4 | x4 | x4 | x4 | %19
 x4 | x4 | x B x2 | x4 | x3 :| %24
V:3
|: z | [E,,E,]3 z | [E,,E,]3 z | [B,,,B,,]3 z | [E,,E,]3 z | [E,,E,]3 z | [E,,E,]3 z | %7
 [B,,,D,]3 z | [C,,E,]3 :| [E,E] | [E,B,]2 [B,,B,]2 | [E,B,]3 [A,C] | B,2 [B,,B,]2 | [E,B,]3 |: %14
 [E,E] | [A,E][A,E] [A,E][A,,E] | [E,E][E,E] [E,E][E,B,] | [B,,B,][B,,B,] [B,,B,][B,,B,] | %18
 [E,B,][E,E] [E,E][E,B,] | [A,,E][A,,E] [A,,E][A,,E] | [E,E][E,E] (EB,) | [E,B,][G,E] [A,E][A,E] | %22
 B,2 [B,,B,]2 | [E,B,]3 :| %24
V:4
|: x | x4 | x4 | x4 | x4 | x4 | x4 | x4 | x3 :| x | x4 | x4 | B,2 x2 | x3 |: x | x4 | x4 | x4 | %18
 x4 | x4 | x2 E,2 | x4 | B,2 x2 | x3 :| %24

